packages/calcite-ui-icons/icons/security-camera-24.svg

<?xml version="1.0" encoding="UTF-8"?><svg id="icons" xmlns="http://www.w3.org/2000/svg" viewBox="0 0 24 24"><defs><style>.cls-1{fill:none;}.cls-2{fill:#231f20;}</style></defs><rect class="cls-1" width="24" height="24"/><path class="cls-2" d="M23,16h-.93335c-.55225,0-1,.44769-1,1v1h-4.06665v-1c.55231,0,1-.44775,1-1v-2h2.29547c1.41064,0,2.56763-2.19714,2.69208-5h.17761c.44946,0,.81885-.37018.83069-.83612.00275-.10944.00415-.2196.00415-.33057,0-3.22168-1.55023-5.83331-3-5.83331H3v.00696c-.22028-.00122-.43231.03064-.62964.11224-1.49725.61932-1.77002,3.51074-.80627,6.8808h1.43591v-1h-.66309c-.6709-2.84961-.22559-4.69141.41504-4.95703.07031-.02832.14746-.04297.23535-.04297.4386,0,1.01636.3114,1.64185.86871-.9762.97571-1.62915,2.67859-1.62915,4.63129,0,3.03754,1.56702,5.5,3.5,5.5h5.5v2c0,.55225.44769,1,1,1v4c0,.55225.44769,1,1,1h2c.55231,0,1-.44775,1-1h4.06665c0,.55225.44775,1,1,1h.93335c.55231,0,1-.44775,1-1v-4c0-.55231-.44769-1-1-1ZM6,3h14.77899c.75476,0,2.22101,1.80872,2.22101,4.64282,0,.12189-.00464.23914-.00861.35718h-14.3974c-.95453-2.18652-2.20984-3.96375-3.43884-5h.84485ZM7,8.50226c0,1.1842-.19275,1.97955-.34747,2.3595-.07507.18433-.22998.18433-.30505,0-.15472-.37994-.34747-1.17529-.34747-2.3595,0-1.19128.19495-1.98889.3501-2.36609.01862-.04517.04211-.0788.06805-.1015.13324.20654.26422.42578.39404.6507.10126.43549.18781,1.03186.18781,1.81689ZM4,8.5c0-1.70654.53375-3.17346,1.31177-3.93536.20288.22955.40588.48175.60968.7572-.50098.5401-.92145,1.72113-.92145,3.17816,0,2.00293.79218,3.5,1.5,3.5.65228,0,1.36823-1.27759,1.47778-3.04462l.02222.04462h.97198c-.13983,2.24677-1.1864,4-2.47198,4-1.38074,0-2.5-2.01471-2.5-4.5ZM13,14h2v-1h-6.49152c.8194-.90485,1.39648-2.34558,1.49152-4l12-.001c-.12885,2.45081-1.17743,4.001-1.90479,4.001h-3.09521v3h-4v-2ZM14,21v-4h2v4h-2ZM17,20v-1h4.06665v1h-4.06665ZM23,21h-1v-4h1v4Z"/></svg>

<svg xmlns="http://www.w3.org/2000/svg" viewBox="0 0 24 24"><path d="M0 0h24v24H0z" style="fill:none"/><path d="M23 16h-.933a1 1 0 0 0-1 1v1H17v-1a1 1 0 0 0 1-1v-2h2.295c1.411 0 2.568-2.197 2.693-5h.177c.45 0 .819-.37.83-.836q.006-.165.005-.33C24 4.611 22.45 2 21 2H3v.007a1.6 1.6 0 0 0-.63.112C.873 2.74.6 5.63 1.564 9H3V8h-.663c-.671-2.85-.226-4.691.415-4.957A.6.6 0 0 1 2.987 3c.439 0 1.017.311 1.642.869C3.653 4.844 3 6.547 3 8.5 3 11.538 4.567 14 6.5 14H12v2a1 1 0 0 0 1 1v4a1 1 0 0 0 1 1h2a1 1 0 0 0 1-1h4.067a1 1 0 0 0 1 1H23a1 1 0 0 0 1-1v-4a1 1 0 0 0-1-1M6 3h14.779C21.534 3 23 4.809 23 7.643q-.002.181-.009.357H8.594c-.955-2.187-2.21-3.964-3.439-5zm1 5.502c0 1.184-.193 1.98-.347 2.36-.076.184-.23.184-.306 0C6.193 10.482 6 9.686 6 8.502c0-1.191.195-1.989.35-2.366a.3.3 0 0 1 .068-.101q.2.31.394.65C6.913 7.121 7 7.717 7 8.502M4 8.5c0-1.707.534-3.173 1.312-3.935q.304.344.61.757C5.42 5.862 5 7.043 5 8.5c0 2.003.792 3.5 1.5 3.5.652 0 1.368-1.278 1.478-3.045L8 9h.972c-.14 2.247-1.186 4-2.472 4C5.12 13 4 10.985 4 8.5m9 5.5h2v-1H8.508c.82-.905 1.397-2.346 1.492-4l12-.001C21.871 11.449 20.823 13 20.095 13H17v3h-4zm1 7v-4h2v4zm3-1v-1h4.067v1zm6 1h-1v-4h1z" style="fill:#231f20"/></svg>
